!!!OTL@@DE: Der Schlossergesell
!!!ONB: Volksweise
!!!CDT: 1830
!!!OMD: Con moto
!!!LYR: Grübel, Joh. Conrad
!!!LDT: 1800
!!!OCL: Erk, Ludwig
!!!GCO: Deutscher Liederschatz, Band 1
**kern	**kern	**kern
*staff3	*staff2	*staff1
*>[P,A,A1,A,A2,B,B1,B,B2]	*>[P,A,A1,A,A2,B,B1,B,B2]	*>[P,A,A1,A,A2,B,B1,B,B2]
*>norep[P,A,A2,B,B2]	*>norep[P,A,A2,B,B2]	*>norep[P,A,A2,B,B2]
*Ipiano	*Ipiano	*Ivox
*clefF4	*clefG2	*clefG2
*k[]	*k[]	*k[]
*C:	*C:	*C:
*M2/4	*M2/4	*M2/4
*MM92	*MM92	*MM92
*>P	*>P	*>P
8r	8r	8g
=1!|:	=1!|:	=1!|:
*>A	*>A	*>A
8CL	8r	8.e
8r	8c 8e 8gL	.
.	.	16g
8EJ	8r	8cc
8r	8c 8gJ	8b
=2	=2	=2
8FL	8r	8.a
8r	8c 8f 8aL	.
.	.	16f
8F#J	8r	8dd
8r	8c 8d 8aJ	8cc
=3	=3	=3
8GL	8r	8b
8r	8B 8d 8gL	8g
8GG 8GJ	8r	8a
8r	8B 8d 8fJ	8b
=4	=4	=4
*>A1	*>A1	*>A1
4.C 4.G	8r	(8.ccL
.	8c 8eL	.
.	.	16ddk
.	8e 8g	8eeJ)
8r	8c 8eJ	8g
=5	=5	=5
*>A2	*>A2	*>A2
8CL	4c 4e	4cc
8GG	.	.
8CCJ	4r	8r
8r	.	8dd
=6	=6	=6
8FF#L	8r	8.dd
8r	8c 8dL	.
.	.	16cc
8DJ	8r	8a
8r	8c 8d 8f#J	8dd
=7	=7	=7
8GGL	8r	8.dd
8r	8B 8d 8gL	.
.	.	16b
8GJ	8r	8g
8r	8B 8d 8gJ	8dd
=8	=8	=8
8F#L	8r	8.dd
8r	8c 8d 8aL	.
.	.	16cc
8DJ	8r	8a
8r	8c 8d 8f#J	8b
=9	=9	=9
8GL	4.B 4.d 4.g	4g
8D	.	.
8GGJ	.	8r
8r	8r	8g
=10!|:	=10!|:	=10!|:
*>B	*>B	*>B
8EL	8r	8.cc
8r	8c 8g 8ccL	.
.	.	16dd
8CJ	8r	8ee
8r	8e 8g 8ccJ	8cc
=11	=11	=11
8FL	8r	8.a
8r	8c 8f 8aL	.
.	.	16f
8DJ	8r	8dd
8r	8d 8f 8aJ	8cc
=12	=12	=12
8GL	8r	8b
8r	8B 8d 8gL	8g
8GGJ	8r	8a
8r	8d 8f 8gJ	8b
=13	=13	=13
*>B1	*>B1	*>B1
4.C 4.G	8r	(8.ccL
.	8c 8eL	.
.	.	16ddk
.	8e 8g	8eeJ)
8r	8c 8eJ	8g
=14:|!	=14:|!	=14:|!
*>B2	*>B2	*>B2
8CL	4.c 4.e 4.g	4cc
8GG	.	.
8CCJ	.	8r
==	==	==
*-	*-	*-
!!!system-decoration: s1{(s2,s3)}
!!!ENC: Craig Stuart Sapp
!!!END: 2004/05/18/
!!!EFL: 010/651
